X: 21743
T: King Of The Cannibal Islands, The
R: slide
M: 12/8
K: Dmajor
|:A|f2e d2 c d2 B A2 F|~G3 EFG F2 G A2 F|
BGB dcB AFA d2B|cde ABc d3- d2:|
e|~f3 f2 A ~f3 f2A|~f3 g2 f e3-e2A|
~e3 e2A ~e3 e2A|e2 f e2 d c2B A2c|
ded cBA B2 c d2 A|ded cBA B2 c d3|
~e3 ~e3 ~e3 ef^g|a2 A ABc d3-d2||

